X:130
T: Paddy McMahon's
S: "First Collection of Traditional Irish Music" (M.Mulvihill)
Z: B.Black
L: 1/8
M: 6/8
R: jig
K: D
e|fef edB|BAF FEF|EDB, DFA|BAF Ade|
fef edB|BAF FEF|EDB, DFA|Bdc d2 :|
e|fef afe|dBd BAF|BAF DFA|BAF EFA|
B/c/dB AFE|DFA BAF|Ade f/g/af|edc d2 :|
